X: 20727
T: Johnny Cope
R: hornpipe
M: 4/4
K: Adorian
DEG|:A2 AG A2 Bd|eged B2 AG|EGGF G3 A|BAGE dBed|
BAAG A2 (3Bcd|ez ed B2 d2|(3efg fa gedB|1 BAAG AGEG:|2 BAAG A2 z2]|.
|:c3d c2G2|cdeg gedB|cBAc deed|cded dBGB|
cBcdc2G2|(3Bcd eg gedg|e2 ag (3efg dB|1 BAAG A2 AB:|2 BAAG A2z2]|
|:c3B ABAG|ABcd e2 dc|BG ~G2 dz G2|(3Bcd ed dBGB|
cdcB ~A3G|ABcd e2 dg|e2 ag (3efg dB|1 BAAG A3B:|2 BAAG A2(3Bcd]|
|:e2za a2 ga|bgaf g2 ed|eggf gaba|~g3 b aged|
e2 ag a2 ga|bgaf g2 ed|e2 fa gedB|1 BAAG A2 (3Bcd:|2 BAAG A2 ag]|
|:e3 g feed|e3 g fedB|d3 e dBAB|d z fa ed (3Bcd|
e2 e2 feed|e3 g fedB|Adfd efeB|1 BAAG A2 (3Bcd:|2 BAAG A2 (3efg]|
|:a2 ed efge|a2 ed eaag|f3 e d^cde|faed BABd|
a z ed efge|a2 ed e2 dB|Adfd (3efe dB|1 BAAG A2 (3efg:|2 BAAG AGEG]|

